argon/scalable/status/weather-few-clouds-symbolic.symbolic.svg

<?xml version="1.0" encoding="UTF-8" standalone="no"?>
<svg
   xmlns:dc="http://purl.org/dc/elements/1.1/"
   xmlns:cc="http://creativecommons.org/ns#"
   xmlns:rdf="http://www.w3.org/1999/02/22-rdf-syntax-ns#"
   xmlns:svg="http://www.w3.org/2000/svg"
   xmlns="http://www.w3.org/2000/svg"
   xmlns:sodipodi="http://sodipodi.sourceforge.net/DTD/sodipodi-0.dtd"
   xmlns:inkscape="http://www.inkscape.org/namespaces/inkscape"
   height="16"
   width="16"
   version="1.1"
   id="svg4"
   sodipodi:docname="weather-few-clouds-symbolic.symbolic.svg"
   inkscape:version="1.0.1 (3bc2e813f5, 2020-09-07)">
  <metadata
     id="metadata10">
    <rdf:RDF>
      <cc:Work
         rdf:about="">
        <dc:format>image/svg+xml</dc:format>
        <dc:type
           rdf:resource="http://purl.org/dc/dcmitype/StillImage" />
        <dc:title />
      </cc:Work>
    </rdf:RDF>
  </metadata>
  <defs
     id="defs8" />
  <sodipodi:namedview
     pagecolor="#333333"
     bordercolor="#666666"
     borderopacity="1"
     objecttolerance="10"
     gridtolerance="10"
     guidetolerance="10"
     inkscape:pageopacity="0"
     inkscape:pageshadow="2"
     inkscape:window-width="1836"
     inkscape:window-height="1016"
     id="namedview6"
     showgrid="false"
     inkscape:zoom="22.627417"
     inkscape:cx="6.7052063"
     inkscape:cy="5.3045381"
     inkscape:window-x="2004"
     inkscape:window-y="27"
     inkscape:window-maximized="1"
     inkscape:current-layer="layer2"
     inkscape:document-rotation="0" />
  <g
     inkscape:groupmode="layer"
     id="layer2"
     inkscape:label="Icon"
     style="display:inline">
    <g
       id="g846">
      <path
         style="color:#000000;font-style:normal;font-variant:normal;font-weight:normal;font-stretch:normal;font-size:medium;line-height:normal;font-family:sans-serif;font-variant-ligatures:normal;font-variant-position:normal;font-variant-caps:normal;font-variant-numeric:normal;font-variant-alternates:normal;font-variant-east-asian:normal;font-feature-settings:normal;font-variation-settings:normal;text-indent:0;text-align:start;text-decoration:none;text-decoration-line:none;text-decoration-style:solid;text-decoration-color:#000000;letter-spacing:normal;word-spacing:normal;text-transform:none;writing-mode:lr-tb;direction:ltr;text-orientation:mixed;dominant-baseline:auto;baseline-shift:baseline;text-anchor:start;white-space:normal;shape-padding:0;shape-margin:0;inline-size:0;clip-rule:nonzero;display:inline;overflow:visible;visibility:visible;isolation:auto;mix-blend-mode:normal;color-interpolation:sRGB;color-interpolation-filters:linearRGB;solid-color:#000000;solid-opacity:1;vector-effect:none;fill:#000000;fill-opacity:1;fill-rule:nonzero;stroke:none;stroke-width:2;stroke-linecap:butt;stroke-linejoin:miter;stroke-miterlimit:4;stroke-dasharray:none;stroke-dashoffset:0;stroke-opacity:1;color-rendering:auto;image-rendering:auto;shape-rendering:auto;text-rendering:auto;enable-background:accumulate;stop-color:#000000"
         d="M 11.5,8 C 10.147541,8.0018917 8.9172044,8.7828282 8.3398438,10.005859 7.024299,10.090309 6.0003816,11.181747 6,12.5 6,13.880712 7.1192881,15 8.5,15 H 14 c 1.104569,0 2,-0.895431 2,-2 -7.76e-4,-0.716977 -0.385282,-1.378687 -1.007812,-1.734375 C 14.868837,9.4277209 13.342039,7.9999767 11.5,8 Z"
         id="path837" />
      <path
         id="path2"
         style="fill:#000000"
         d="m 7.5,0 v 2 h 1 V 0 Z M 4.4335938,0.82226562 3.5664062,1.3222656 l 1.0019532,1.7324219 0.8652344,-0.5 z m 7.1328122,0 -1,1.73242188 0.867188,0.5 1,-1.7324219 z M 8,3 C 2.5424585,3 1.5553129,9.6999507 5.0332031,12.130859 5.2001031,10.623752 6.3502734,9.4202861 7.8378906,9.1230469 8.6602159,7.8690382 9.9720791,7.0021344 11.498047,7 H 11.5 c 0.505944,-6.4e-6 0.987828,0.09546 1.439453,0.2539062 C 12.578596,4.8471187 10.507342,3 8,3 Z m -6.6777344,0.5664062 -0.49999998,0.8671876 1.73242188,1 0.5,-0.8671876 z m 13.3554684,0 -1.732422,1 0.5,0.8671876 1.732422,-1 z M 0,7.5 v 1 h 2 v -1 z m 14,0 V 7.8066406 C 14.286106,8.007701 14.549024,8.2377529 14.78125,8.5 H 16 v -1 z m -11.4453125,3.066406 -1.73242188,1 0.49999998,0.867188 1.7324219,-1.001953 z m 2.0117187,2.378906 -1,1.732422 0.8671876,0.5 0.8144531,-1.412109 C 5.1817972,13.597323 5.125518,13.423649 5.0859375,13.244141 Z"
         sodipodi:nodetypes="cccccccccccccccscccscscccccccccccccccccccccccccccccccc" />
    </g>
  </g>
</svg>

<?xml version="1.0" encoding="UTF-8" standalone="no"?>
<svg
   xmlns:dc="http://purl.org/dc/elements/1.1/"
   xmlns:cc="http://creativecommons.org/ns#"
   xmlns:rdf="http://www.w3.org/1999/02/22-rdf-syntax-ns#"
   xmlns:svg="http://www.w3.org/2000/svg"
   xmlns="http://www.w3.org/2000/svg"
   xmlns:sodipodi="http://sodipodi.sourceforge.net/DTD/sodipodi-0.dtd"
   xmlns:inkscape="http://www.inkscape.org/namespaces/inkscape"
   height="16"
   width="16"
   version="1.1"
   id="svg4"
   sodipodi:docname="weather-few-clouds-symbolic.symbolic.svg"
   inkscape:version="1.0.1 (3bc2e813f5, 2020-09-07)">
  <metadata
     id="metadata10">
    <rdf:RDF>
      <cc:Work
         rdf:about="">
        <dc:format>image/svg+xml</dc:format>
        <dc:type
           rdf:resource="http://purl.org/dc/dcmitype/StillImage" />
        <dc:title />
      </cc:Work>
    </rdf:RDF>
  </metadata>
  <defs
     id="defs8" />
  <sodipodi:namedview
     pagecolor="#333333"
     bordercolor="#666666"
     borderopacity="1"
     objecttolerance="10"
     gridtolerance="10"
     guidetolerance="10"
     inkscape:pageopacity="0"
     inkscape:pageshadow="2"
     inkscape:window-width="1836"
     inkscape:window-height="1016"
     id="namedview6"
     showgrid="false"
     inkscape:zoom="26.9375"
     inkscape:cx="9.0205733"
     inkscape:cy="10.634715"
     inkscape:window-x="2004"
     inkscape:window-y="27"
     inkscape:window-maximized="1"
     inkscape:current-layer="svg4"
     inkscape:document-rotation="0" />
  <path
     id="path2"
     style="fill:#000000"
     d="M 7.5 0 L 7.5 2 L 8.5 2 L 8.5 0 L 7.5 0 z M 4.4335938 0.82226562 L 3.5664062 1.3222656 L 4.5683594 3.0546875 L 5.4335938 2.5546875 L 4.4335938 0.82226562 z M 11.566406 0.82226562 L 10.566406 2.5546875 L 11.433594 3.0546875 L 12.433594 1.3222656 L 11.566406 0.82226562 z M 8 3 A 5 5 0 0 0 3 8 C 3 9.648 3.8081094 11.096812 5.0371094 12.007812 A 3.5 3.5 0 0 1 5.3476562 10.988281 A 4 4 0 0 1 4 8 A 4 4 0 0 1 8 4 A 4 4 0 0 1 11.873047 7.0175781 A 4.5 4.5 0 0 1 12.9375 7.2421875 A 4.997 4.997 0 0 0 8 3 z M 1.3222656 3.5664062 L 0.82226562 4.4335938 L 2.5546875 5.4335938 L 3.0546875 4.5664062 L 1.3222656 3.5664062 z M 14.677734 3.5664062 L 12.945312 4.5664062 L 13.445312 5.4335938 L 15.177734 4.4335938 L 14.677734 3.5664062 z M 0 7.5 L 0 8.5 L 2 8.5 L 2 7.5 L 0 7.5 z M 14 7.5 L 14 7.7617188 A 4.5 4.5 0 0 1 14.847656 8.5 L 16 8.5 L 16 7.5 L 14 7.5 z M 11.5 8 A 3.5 3.5 0 0 0 8.3398438 10.005859 A 2.5 2.5 0 0 0 6 12.5 A 2.5 2.5 0 0 0 8.5 15 L 14 15 A 2 2 0 0 0 16 13 A 2 2 0 0 0 14.992188 11.265625 A 3.5 3.5 0 0 0 11.5 8 z M 11.466797 9 A 2.497 2.497 0 0 1 11.498047 9 L 11.5 9 A 2.486 2.486 0 0 1 13.992188 11.332031 L 14.029297 11.867188 L 14.494141 12.134766 A 0.996 0.996 0 0 1 14.998047 13.001953 A 0.985 0.985 0 0 1 13.998047 14 L 8.4980469 14 C 7.6580469 14 6.9980469 13.34 6.9980469 12.5 C 6.9980469 11.7 7.6033438 11.054906 8.4023438 11.003906 L 8.9902344 10.966797 L 9.2421875 10.433594 A 2.497 2.497 0 0 1 11.466797 9 z M 2.5585938 10.566406 L 0.82617188 11.566406 L 1.3261719 12.433594 L 3.0585938 11.431641 L 2.5585938 10.566406 z M 4.5703125 12.945312 L 3.5703125 14.677734 L 4.4375 15.177734 L 5.2480469 13.775391 A 3.5 3.5 0 0 1 5.0859375 13.242188 L 4.5703125 12.945312 z " />
</svg>
